X: 18919
T: Independent, The
R: jig
M: 6/8
K: Dmajor
DB,A, DFA|BdA BAF|BAF dAF|~E3 EDB,|
DB,A, DFA|BdA BAF|BAF dAF|1 EDC D2A,:|2 EDC D3||
d2e fed|B2A BAF|BAF dAF|EBE EFA|
Bde fed|BdA BAF|BAF dAF|EDC D3|
d2e fed|BdA BAF|BAF dAF|EBE EDB,|
DB,A, DFA|BdA BAF|BAF dAF|EDC D3||

